X:1
T: Gaelic Air
C:
R:Jig
Q:180
K:G
M:6/8
L:1/16
|:G4G2 G2B2G2|A4A2 A2g2e2|A4A2 A2B2A2|g3eg2 e4d2|
G4G2 G2B2G2|A4A2 A2g2A2|G4G2 G2B2G2|g3eg2 e4d2:|
|:d3eg2 a3ga2|b3ag2 g2e2d2|d3eg2 a2g2a2|b3ag2 g4e2|
d3eg2 a3ga2|b3ag2 g2e2d2|e3dc2 B2A2G2|g3eg2 e4d2:|
